X:1
T:Title
%%score { ( 1 4 ) | ( 2 3 ) }
L:1/8
M:6/8
K:G
V:1 treble nm="Grand Piano"
V:4 treble 
V:2 bass 
V:3 bass 
V:1
 z3 z2[Q:1/4=81] D | [DB]>BB BGA | BGc B2 B | [Fd]>dd cA_B | [DB]3- [DB] z D | [DB]>BB BGA | %6
 Bcd [Ec]2 [^Dc] | [DB]>BB [^CB]EB |[M:5/8] [CA]-[CA]- [CA]3 |[M:1/8] [Fd] | %10
[M:3/4] [Fd]>[Fd] [Fd][EFc] [DFB][CFA] | GA c B2 B | [GB]>[GB] [GB]^c de | %13
 d-[Fd-] [Gd-] [Ad]2 [Fd] | d>d e[=Fd] [Ec][Ec] | B>B c [CA]2 [Ge][Q:1/4=80] | %16
 [Gd]>[GB] [Gd][Fd]/[CFA]/ z [DFB][Q:1/4=79][Q:1/4=77][Q:1/4=76][Q:1/4=75][Q:1/4=74][Q:1/4=73][Q:1/4=71][Q:1/4=70][Q:1/4=69][Q:1/4=68][Q:1/4=67][Q:1/4=66][Q:1/4=64][Q:1/4=63][Q:1/4=62] | %17
[M:5/8] G2- [EG-] [DG]2 |] %18
V:2
 z3 z2 B, | z z/ D/D DB,C | DB,E D2 D | z z/[K:treble] F/F EC^C | G,,B,,D, .G,2 B, | %5
 z z/ D/D DB,C | D[K:treble]E=F[K:bass] [C,,C,]3 | z z/ D/D z ^CC | %8
[M:5/8] [D,,D,]-[D,,D,]- [D,,D,]3 |[M:1/8] [D,A,] |[M:3/4] [D,A,]>[D,A,] [D,A,]D, D,D, | %11
 [G,B,][K:treble][G,CG] [G,EG] [G,DG]2 [G,DG] | [E,E]>[E,E] [E,E][K:treble][A,EG] [A,DG][A,^CG] | %13
 z A, B, C2 [D,C] | [G,B,=F]>[G,B,F] [G,B,G][K:bass][C,G,] [C,G,][C,G,] | %15
 [E,G,D]>[E,D] [E,G,E] [A,,A,]2 [^C,_B,] | [D,B,]>[D,D] [D,B,][D,A,]/D,/ z D, |[M:5/8] z2 C B,2 |] %18
V:3
 x6 | G,,6- | G,,6 | [D,,D,]6[K:treble] | x6 | G,,6- | G,,3[K:treble][K:bass] z3 | [D,,D,]3 A,,3 | %8
[M:5/8] x5 |[M:1/8] x |[M:3/4] x6 | x[K:treble] x5 | x3[K:treble] x3 | D,6 | x3[K:bass] x3 | x6 | %16
 x6 |[M:5/8] G,,-G,,- G,,3 |] %18
V:4
 x6 | x6 | x6 | x6 | x6 | x6 | x6 | x6 |[M:5/8] x5 |[M:1/8] x |[M:3/4] x6 | x6 | x6 | %13
 .[DF]2 z2 z2 | x6 | x6 | x6 |[M:5/8] [B,D]2 z z2 |] %18

